X:239
T:Royal Polka Quadrilles No.1. Le4.239, The
M:2/4
L:1/8
Q:2/4=50
B:L.Leadley MS#4 c1850
Z:Village Music Project 2016 Steve Mansfield
K:D
fa {edc} d2 | bg {c'ag} a2 | c'A c'A | c'A {gfe} f2 |
fa {edc} d2 | bg {c'ag} a2 | cb ca | f/a/g/e/ d z H ||
d'd {f}ed | bG {AGF} G2 | aA {c}BA | fD {EDC}D2 |
Dd {f}ed | bg {agf} g2 | Aa c'/a/g/f/ | d/f/e/a/ dz ||
fa {edc} d2 | bg {c'ba} a2 | c'A bA | aA {gfe} f2 |
fa {edc} d2 | bg {c'ba} a2 | cb ca | f/a/g/e/ dz ||
d'b/g/ Td2 | d'b/g/ Td2 | ba Ta2 | ba Ta2 |
d'b/g/ Td2 | d'b/g/ Td2 | ba a2 | gb/d'/ gz !D.C.! |]

